src/assets/duotone/BookSaved.svg

<?xml version="1.0" encoding="UTF-8"?>
<svg width="24" height="24" viewBox="0 0 24 24" xmlns="http://www.w3.org/2000/svg">
 <path d="m12 5.2997v16.03c0.17 0 0.35-0.03 0.49-0.11l0.04-0.02c1.92-1.05 5.27-2.15 7.44-2.44l0.29-0.04c0.96-0.12 1.74-1.02 1.74-1.98v-12.08c0-1.19-0.97-2.09-2.16-1.99-2.1 0.17-5.28 1.23-7.06 2.34l-0.25 0.14996c-0.15 0.09-0.34 0.14002-0.53 0.14002z" opacity=".4"/>
 <path d="m2 4.6695v12.07c0 0.96 0.77999 1.86 1.74 1.98l0.33002 0.0401c2.18 0.29 5.54 1.3999 7.46 2.4599 0.13 0.08 0.29 0.1101 0.47 0.1101v-16.03c-0.19 0-0.38-0.05002-0.53-0.14002l-0.17-0.10998c-1.78-1.12-4.97-2.19-7.07-2.37h-0.06c-1.19-0.1-2.17 0.78999-2.17 1.99z"/>
 <path d="m19 2.7803v4.29c0 0.4-0.44 0.63998-0.78 0.41998l-1.22-0.80999-1.22 0.80999c-0.33 0.22-0.78-0.01998-0.78-0.41998v-3.15c1.31-0.52 2.77-0.93996 4-1.14z"/>
</svg>

<svg width="24" height="24" viewBox="0 0 24 24"  xmlns="http://www.w3.org/2000/svg">
<path opacity="0.4" d="M12 5.29971V21.3297C12.17 21.3297 12.35 21.2997 12.49 21.2197L12.53 21.1997C14.45 20.1497 17.8 19.0497 19.97 18.7597L20.26 18.7197C21.22 18.5997 22 17.6997 22 16.7397V4.65969C22 3.46969 21.03 2.5697 19.84 2.6697C17.74 2.8397 14.56 3.89973 12.78 5.00973L12.53 5.15969C12.38 5.24969 12.19 5.29971 12 5.29971Z" />
<path d="M2 4.66953V16.7395C2 17.6995 2.77999 18.5995 3.73999 18.7195L4.07001 18.7596C6.25001 19.0496 9.61003 20.1595 11.53 21.2195C11.66 21.2995 11.82 21.3296 12 21.3296V5.29954C11.81 5.29954 11.62 5.24952 11.47 5.15952L11.3 5.04954C9.51999 3.92954 6.32998 2.85954 4.22998 2.67954H4.16998C2.97998 2.57954 2 3.46953 2 4.66953Z" />
<path d="M19 2.78027V7.07025C19 7.47025 18.56 7.71023 18.22 7.49023L17 6.68024L15.78 7.49023C15.45 7.71023 15 7.47025 15 7.07025V3.92023C16.31 3.40023 17.77 2.98027 19 2.78027Z" />
</svg>
